X:463
T:Vals efter Ola Andersson 
T:(Mor Anders Görans vals, SvL Skåne nr. 691)
R:Vals
Z:Patrik Månsson, 23/9 2008
O:Öslöv, Bosarp Skåne
C:Ola Andersson
B:Svenska Låtar Skåne
N:Sv. L. Sk. 691
M:3/4
L:1/8
K:A
|:E2 | E2 AA AA | (BA) (GA) B2 | G2 BB BB | (cB) (AB) c2 |
d2 ff ff | (ed) (cd) e2 | (ea) (ce) dB |A2 z2 :|
|: d2 | c2 ee ee | (fe) (de) f2 | B2 dd dd | (ed) (cd) e2 |
E2 A2 c2 | (ed) (cd) e2 | (ea) (ce) dB | A2 z2 :|


(:musicend:)
(:music:)
